img/i-linkedin.svg

<svg height="208" viewBox="0 0 227 208" width="227" xmlns="http://www.w3.org/2000/svg"><path d="m170.765 65.702c31.402 0 56.069 20.135 56.069 63.492v77.845h-50.098v-72.445c0-18.959-7.84-31.907-25.073-31.907-13.175 0-20.509 8.737-23.923 17.158-1.278 3.022-1.074 7.228-1.074 11.44v75.754h-49.641s.645-128.33 0-139.994h49.641v21.97c2.929-9.605 18.787-23.313 44.099-23.313zm-120.718 1.346v139.989h-44.176v-139.989zm-22.904-66.086c16.304 0 26.323 10.454 26.644 24.267 0 13.568-10.339 24.309-26.949 24.309h-.326c-15.99 0-26.359-10.705-26.359-24.267 0-13.831 10.674-24.309 26.99-24.309z" fill="#3fd5ae"/></svg>

<?xml version="1.0" encoding="UTF-8"?>
<svg width="227px" height="208px" viewBox="0 0 227 208" version="1.1" xmlns="http://www.w3.org/2000/svg" xmlns:xlink="http://www.w3.org/1999/xlink">
    <!-- Generator: Sketch 61.2 (89653) - https://sketch.com -->
    <title>Rectangle 2</title>
    <desc>Created with Sketch.</desc>
    <g id="Page-1" stroke="none" stroke-width="1" fill="none" fill-rule="evenodd">
        <g id="i-linkedin" fill="#3FD5AE" fill-rule="nonzero">
            <path d="M170.765,65.702 C202.167,65.702 226.834,85.837 226.834,129.194 L226.834,129.194 L226.834,207.039 L176.736,207.039 L176.736,134.594 C176.736,115.635 168.896,102.687 151.663,102.687 C138.488,102.687 131.154,111.424 127.74,119.845 C126.462,122.867 126.666,127.073 126.666,131.285 L126.666,131.285 L126.666,207.039 L77.025,207.039 C77.025,207.039 77.67,78.709 77.025,67.045 L77.025,67.045 L126.666,67.045 L126.666,89.015 C129.595,79.41 145.453,65.702 170.765,65.702 Z M50.047,67.048 L50.047,207.037 L5.871,207.037 L5.871,67.048 L50.047,67.048 Z M27.143,0.962 C43.447,0.962 53.466,11.416 53.787,25.229 C53.787,38.797 43.448,49.538 26.838,49.538 L26.838,49.538 L26.512,49.538 C10.522,49.538 0.153,38.833 0.153,25.271 C0.153,11.44 10.827,0.962 27.143,0.962 Z" id="Rectangle-2"></path>
        </g>
    </g>
</svg>
